!!!!SEGMENT: pl-wtm--r-995--001-002_krogulski-jozef-wladyslaw--msza-pasterska-gloria.krn
!!!cenid: 18xx:2084
!!!COM: Krogulski, Józef Władysław
!!!COM-rismID:
!!!CDT: 1815/10/04-1842/01/09
!!!CNT: Polish
!!!OPR: Msza pasterska
!!!OTL: Gloria
!!!OMV: 002
!!!PDT:
!!!AGN: Sacred; Mass
!!!SMS-siglum: PL-Wtm
!!!SMS-shelfmark: R 995
!!!SMS-shelfwork: 001-002 M
!!!SMS-variant:
!!!SMS-altvar:
!!!NIFC-rismSourceID: 1001083272
!!!NIFC-islandoraID:
!!!URL-pdf-islandora:
!!!URL-scan:
!!!ONB-nifc: UWAGA: części Mszy: 1. Kyrie, 2. Gloria, 3. Graduale, 4. Credo, 5. Offertorium, 6. Sanctus, 7. Benedictus, 8. Agnus Dei, 9. Dona nobis
!!!AIN: 1 bass 1 organ 2 soprn 1 tenor
!!!key: C
!!!OMD: Allegro.
**kern	**kern	**dynam	**kern	**text	**mod-text	**dynam	**mod-dynam	**kern	**text	**mod-text	**dynam	**mod-dynam	**kern	**text	**mod-text	**dynam	**mod-dynam	**kern	**text	**dynam
*part5	*part5	*part5	*part4	*part4	*part4	*part4	*part4	*part3	*part3	*part3	*part3	*part3	*part2	*part2	*part2	*part2	*part2	*part1	*part1	*part1
*staff6	*staff5	*	*staff4	*staff4	*staff4	*	*	*staff3	*staff3	*staff3	*	*	*staff2	*staff2	*staff2	*	*	*staff1	*staff1	*
*Iorgan	*Iorgan	*	*Ibass	*	*	*	*	*Itenor	*	*	*	*	*Isoprn	*	*	*	*	*Isoprn	*	*
*I"Organ	*I"Organ	*	*I"Baſsi	*	*	*	*	*I"Tenore	*	*	*	*	*I"Soprano 2.	*	*	*	*	*I"Soprano 1.	*	*
*mI"Organo	*mI"Organo	*	*mI"Basso	*	*	*	*	*	*	*	*	*	*mI"Soprano II	*	*	*	*	*mI"Soprano I	*	*
*I'org	*I'org	*	*I'B	*	*	*	*	*I'T	*	*	*	*	*I'S 2	*	*	*	*	*I'S 1	*	*
*ICklav	*ICklav	*	*ICvox	*	*	*	*	*ICvox	*	*	*	*	*ICvox	*	*	*	*	*ICvox	*	*
!	!	!	!	!	!	!	!	!LO:MO:mod=*null:null	!	!	!	!	!	!	!	!	!	!	!	!
*	*	*	*	*	*	*	*	*ITrd8c12	*	*	*	*	*	*	*	*	*	*	*	*
*clefF4	*clefG2	*	*clefF4	*	*	*	*	*clefG2	*	*	*	*	*clefG2	*	*	*	*	*clefG2	*	*
*	*	*	*	*	*	*	*	*mclefGv2	*	*	*	*	*	*	*	*	*	*	*	*
*k[]	*k[]	*	*k[]	*	*	*	*	*k[]	*	*	*	*	*k[]	*	*	*	*	*k[]	*	*
*C:	*C:	*	*C:	*	*	*	*	*C:	*	*	*	*	*C:	*	*	*	*	*C:	*	*
*M4/4	*M4/4	*	*M4/4	*	*	*	*	*M4/4	*	*	*	*	*M4/4	*	*	*	*	*M4/4	*	*
*met(c)	*met(c)	*	*met(c)	*	*	*	*	*met(c)	*	*	*	*	*met(c)	*	*	*	*	*met(c)	*	*
=1	=1	=1	=1	=1	=1	=1	=1	=1	=1	=1	=1	=1	=1	=1	=1	=1	=1	=1	=1	=1
*all\right	*all\right	*	*all\right	*	*	*	*	*all\right	*	*	*	*	*all\right	*	*	*	*	*all\right	*	*
!	!	!LO:DY:rj	!	!	!	!LO:DY:b:rj	!LO:DY:b:rj	!	!	!	!LO:DY:b:rj	!LO:DY:b:rj	!	!	!	!LO:DY:b:rj	!	!	!	!LO:DY:b:rj
[>1C [<1CC	1cc 1g 1e	f	4.C/	.	Glo-	f	f	4.G/	.	Glo-	f	f	4.e/	.	Glo-	f	f	4.cc\	Glo-	f
.	.	.	8C/	.	-ri-	.	.	8G/	.	-ri-	.	.	8e/	.	-ri-	.	.	8cc\	-ri-	.
*	*	*	*	*	*	*	*	*	*	*	*	*	*	*	*	*	*	*2\right	*	*
.	.	.	2C/	.	-a	.	.	2G/	.	-a	.	.	2e/	.	-a	.	.	2cc\	-a	.
=2	=2	=2	=2	=2	=2	=2	=2	=2	=2	=2	=2	=2	=2	=2	=2	=2	=2	=2	=2	=2
1C_> 1CC_<	1ee 1cc 1g	.	4.C/	.	Glo-	.	.	4.c\	.	Glo-	.	.	4.e/	.	Glo-	.	.	4.ee\	Glo-	.
.	.	.	8C/	.	-ri-	.	.	8c\	.	-ri-	.	.	8e/	.	-ri-	.	.	8ee\	-ri-	.
.	.	.	2C/	.	-a	.	.	(>4c\	.	-a	.	.	(<4e/	.	-a	.	.	2ee\	-a	.
.	.	.	.	.	.	.	.	4B-X\)	.	.	.	.	4g/)	.	.	.	.	.	.	.
=3	=3	=3	=3	=3	=3	=3	=3	=3	=3	=3	=3	=3	=3	=3	=3	=3	=3	=3	=3	=3
*	*^	*	*	*	*	*	*	*	*	*	*	*	*	*	*	*	*	*	*	*
*	*	*2\right	*	*	*	*	*	*	*	*	*	*	*	*	*	*	*	*	*	*	*
1C_> 1CC_<	4gg/	2a\	.	4C/	.	in	.	.	4A/	.	in	.	.	4f/	.	in	.	.	4gg\	in	.
.	8ff/L	.	.	4C/	.	ex-	.	.	4A/	.	ex-	.	.	4f/	.	ex-	.	.	8ff\L	ex-	.
.	8ee/J	.	.	.	.	.	.	.	.	.	.	.	.	.	.	.	.	.	8ee\J	.	.
.	4dd/	4f\	.	4C/	.	-cel-	.	.	4Bn\	.	-cel-	.	.	4f/	.	-cel-	.	.	4dd\	-cel-	.
!	!	!	!	!	!	!	!	!	!	!	!	!	!	!	!	!	!	!	!	!LO:MO:null:mod=-sis	!
.	8ee/L	8g\L	.	4C/	.	-sis	.	.	4B\	.	-sis	.	.	8g/L	.	-sis	.	.	8ee\L	.	.
!	!	!	!	!	!	!	!	!	!	!	!	!	!	!	!	!	!	!	!	!LO:MO:mod=.	!
.	8dd/J	8f\J	.	.	.	.	.	.	.	.	.	.	.	8f/J	.	.	.	.	8dd\J	-sis	.
*	*v	*v	*	*	*	*	*	*	*	*	*	*	*	*	*	*	*	*	*	*	*
=4	=4	=4	=4	=4	=4	=4	=4	=4	=4	=4	=4	=4	=4	=4	=4	=4	=4	=4	=4	=4
2C] 2CC/]	4cc 4e\	.	4C/	.	De-	.	.	4c\	.	De-	.	.	4e/	.	De-	.	.	4cc\	De-	.
.	4g 4e/	.	4C/	.	-o	.	.	4c\	.	-o	.	.	4e/	.	-o	.	.	4g/	-o	.
2r	4gg 4g\	.	2r	.	.	.	.	4g\	.	in	.	.	2r	.	.	.	.	4gg\	in	.
.	4gg 4g\	.	.	.	.	.	.	4g\	.	ex-	.	.	.	.	.	.	.	4gg\	ex-	.
=5	=5	=5	=5	=5	=5	=5	=5	=5	=5	=5	=5	=5	=5	=5	=5	=5	=5	=5	=5	=5
*^	*^	*	*	*	*	*	*	*	*	*	*	*	*	*	*	*	*	*	*	*
4f/	[<1G	[>1gg	4dd\	.	4G\	in	in	.	.	4f\	-cel-	-cel-	.	.	4dd\	in	in	.	.	[>1gg	-cel-	.
4d/	.	.	4b\	.	4G\	ex-	ex-	.	.	4d\	.	.	.	.	4b\	ex-	ex-	.	.	.	.	.
*	*	*	*	*	*2\right	*	*	*	*	*	*	*	*	*	*	*	*	*	*	*	*	*
4e/	.	.	4cc\	.	[>2G\	-cel-	-cel-	.	.	4e\	.	.	.	.	4cc\	-cel-	-cel-	.	.	.	.	.
4c/	.	.	4ee\	.	.	.	.	.	.	4c\	.	.	.	.	4ee\	.	.	.	.	.	.	.
=6	=6	=6	=6	=6	=6	=6	=6	=6	=6	=6	=6	=6	=6	=6	=6	=6	=6	=6	=6	=6	=6	=6
4B/	1G_<	1gg_>	4ff\	.	1G_>	.	.	.	.	4B\	.	.	.	.	4ff\	.	.	.	.	1gg_>	.	.
4d/	.	.	4dd\	.	.	.	.	.	.	4d\	.	.	.	.	4dd\	.	.	.	.	.	.	.
4c/	.	.	4ee\	.	.	.	.	.	.	4c\	.	.	.	.	4ee\	.	.	.	.	.	.	.
4e/	.	.	4cc\	.	.	.	.	.	.	4e\	.	.	.	.	4cc\	.	.	.	.	.	.	.
=7	=7	=7	=7	=7	=7	=7	=7	=7	=7	=7	=7	=7	=7	=7	=7	=7	=7	=7	=7	=7	=7	=7
4f/	1G_<	1gg_>	4b\	.	2.G\]	.	.	.	.	4f\	.	.	.	.	4b\	.	.	.	.	2.gg\]	.	.
4d/	.	.	4g\	.	.	.	.	.	.	4d\	.	.	.	.	4g\	.	.	.	.	.	.	.
4e/	.	.	4cc\	.	.	.	.	.	.	4e\	.	.	.	.	4cc\	.	.	.	.	.	.	.
4c/	.	.	4ee\	.	4G\	-sis	-sis	.	.	4c\	-sis	-sis	.	.	4ee\	-sis	-sis	.	.	4gg\	-sis	.
=8	=8	=8	=8	=8	=8	=8	=8	=8	=8	=8	=8	=8	=8	=8	=8	=8	=8	=8	=8	=8	=8	=8
*	*2\right	*	*	*	*	*	*	*	*	*	*	*	*	*	*	*	*	*	*	*	*	*
4B/	2G\]	2gg/]	4dd\	.	2G\	De-	De-	.	.	(>4B\	De-	De-	.	.	(>4dd\	De-	De-	.	.	[>2gg\	De-	.
4c/	.	.	4ee\	.	.	.	.	.	.	4c\)	.	.	.	.	4ee\)	.	.	.	.	.	.	.
4B/	4G\	8gg/L	4dd\	.	4G\	-o	-o.	.	.	4B\	-o	-o.	.	.	4dd\	-o	-o.	.	.	8gg\L]	.	.
.	.	8ff/	.	.	.	.	.	.	.	.	.	.	.	.	.	.	.	.	.	8ff\J	.	.
4r	4ryy	8ee/	4r	.	4r	.	.	.	.	4r	.	.	.	.	4r	.	.	.	.	8ee\L	-o.	.
.	.	8dd/J	.	.	.	.	.	.	.	.	.	.	.	.	.	.	.	.	.	8dd\J	.	.
*v	*v	*	*	*	*	*	*	*	*	*	*	*	*	*	*	*	*	*	*	*	*	*
*	*v	*v	*	*	*	*	*	*	*	*	*	*	*	*	*	*	*	*	*	*	*
!!LO:PB:g=original
=9	=9	=9	=9	=9	=9	=9	=9	=9	=9	=9	=9	=9	=9	=9	=9	=9	=9	=9	=9	=9
[>1C [<1EE	1cc 1g 1e	.	4.C/	.	Glo-	.	.	4.G/	Glo-	Glo-	.	.	4.e/	.	Glo-	.	.	4.cc\	Glo-	.
.	.	.	8C/	.	-ri-	.	.	8G/	-ri-	-ri-	.	.	8e/	.	-ri-	.	.	8cc\	-ri-	.
.	.	.	2C/	.	-a	.	.	2G/	-a	-a	.	.	2e/	.	-a	.	.	2cc\	-a	.
=10	=10	=10	=10	=10	=10	=10	=10	=10	=10	=10	=10	=10	=10	=10	=10	=10	=10	=10	=10	=10
1C_> 1EE_<	1ee 1cc 1g	.	4.C/	.	Glo-	.	.	4.c\	Glo-	Glo-	.	.	4.e/	.	Glo-	.	.	4.ee\	Glo-	.
.	.	.	8C/	.	-ri-	.	.	8c\	-ri-	-ri-	.	.	8e/	.	-ri-	.	.	8ee\	-ri-	.
.	.	.	2C/	.	-a	.	.	(>4c\	-a	-a	.	.	(<4e/	.	-a	.	.	2ee\	-a	.
.	.	.	.	.	.	.	.	4B-X\)	.	.	.	.	4g/)	.	.	.	.	.	.	.
=11	=11	=11	=11	=11	=11	=11	=11	=11	=11	=11	=11	=11	=11	=11	=11	=11	=11	=11	=11	=11
*	*^	*	*	*	*	*	*	*	*	*	*	*	*	*	*	*	*	*	*	*
1C_> 1EE_<	4gg/	2a\	.	4C/	.	in	.	.	4A/	in	in	.	.	4f/	.	in	.	.	4gg\	in	.
.	8ff/L	.	.	4C/	.	ex-	.	.	4A/	ex-	ex-	.	.	4f/	.	ex-	.	.	8ff\L	ex-	.
.	8ee/J	.	.	.	.	.	.	.	.	.	.	.	.	.	.	.	.	.	8ee\J	.	.
.	4dd 4f\	2ryy	.	4C/	.	-cel-	.	.	4Bn\	.	-cel-	.	.	4f/	.	-cel-	.	.	4dd\	-cel-	.
.	8eeL 8g\	.	.	4C/	.	-sis	.	.	4B\	-cel-	-sis	.	.	8g/L	.	-sis	.	.	8ee\L	-sis	.
.	8ddJ 8f\	.	.	.	.	.	.	.	.	.	.	.	.	8f/J	.	.	.	.	8dd\J	.	.
*	*v	*v	*	*	*	*	*	*	*	*	*	*	*	*	*	*	*	*	*	*	*
=12	=12	=12	=12	=12	=12	=12	=12	=12	=12	=12	=12	=12	=12	=12	=12	=12	=12	=12	=12	=12
2C] 2EE/]	4cc 4e\	.	4C/	.	De-	.	.	4c\	-sis	De-	.	.	4e/	.	De-	.	.	4cc\	De-	.
.	4g 4e/	.	4C/	.	-o	.	.	4c\	.	-o	.	.	4e/	.	-o	.	.	4g/	-o	.
2r	4ee 4e\	.	2r	.	.	.	.	4e\	De-	in	.	.	2r	.	.	.	.	4ee\	in	.
.	4ee 4e\	.	.	.	.	.	.	4e\	-o	ex-	.	.	.	.	.	.	.	4ee\	ex-	.
=13	=13	=13	=13	=13	=13	=13	=13	=13	=13	=13	=13	=13	=13	=13	=13	=13	=13	=13	=13	=13
*^	*^	*	*	*	*	*	*	*	*	*	*	*	*	*	*	*	*	*	*	*
4d/	1E	[>1ee	4b\	.	4E\	in	in	.	.	4d\	in	-cel-	.	.	4b\	in	in	.	.	[>1ee	-cel-	.
4B/	.	.	4g#X\	.	4E\	ex-	ex-	.	.	4B\	ex-	.	.	.	4g#X\	ex-	ex-	.	.	.	.	.
4c/	.	.	4a\	.	[>2E\	-cel-	-cel-	.	.	4c\	-cel-	.	.	.	(>4a\	-cel-	-cel-	.	.	.	.	.
4A/	.	.	4cc\	.	.	.	.	.	.	4A\	.	.	.	.	4cc\)	.	.	.	.	.	.	.
=14	=14	=14	=14	=14	=14	=14	=14	=14	=14	=14	=14	=14	=14	=14	=14	=14	=14	=14	=14	=14	=14	=14
4G#X/	2E\	1ee]	4dd\	.	2E\]	.	.	.	.	4G#X\	.	.	.	.	4dd\	.	.	.	.	1ee_>	.	.
4B/	.	.	4b\	.	.	.	.	.	.	4B\	.	.	.	.	4b\	.	.	.	.	.	.	.
4A/	2A\	.	4cc\	.	2A\	.	.	.	.	4A\	.	.	.	.	4cc\	.	.	.	.	.	.	.
4c/	.	.	4a\	.	.	.	.	.	.	4c\	.	.	.	.	4a\	.	.	.	.	.	.	.
=15	=15	=15	=15	=15	=15	=15	=15	=15	=15	=15	=15	=15	=15	=15	=15	=15	=15	=15	=15	=15	=15	=15
4B/	4D\	8ee/L	2gn\	.	4D\	.	.	.	.	4B\	.	.	.	.	2gn/	.	.	.	.	8ee\L]	.	.
.	.	8dd/	.	.	.	.	.	.	.	.	.	.	.	.	.	.	.	.	.	8dd\	.	.
2Gn/	4E\	8cc/	.	.	4E\	.	.	.	.	2Gn/	.	.	.	.	.	.	.	.	.	8cc\	.	.
.	.	8b/J	.	.	.	.	.	.	.	.	.	.	.	.	.	.	.	.	.	8b\J	.	.
.	4C\	4a/	4e\	.	4C\	.	.	.	.	.	.	.	.	.	4e/	.	.	.	.	4a/	.	.
4d 4D\	4ryy	4dd/	4f#X\	.	4D\	-sis	-sis	.	.	4d\	-sis	-sis	.	.	4f#X/	-sis	-sis	.	.	4dd\	-sis	.
*v	*v	*	*	*	*	*	*	*	*	*	*	*	*	*	*	*	*	*	*	*	*	*
*	*v	*v	*	*	*	*	*	*	*	*	*	*	*	*	*	*	*	*	*	*	*
=16	=16	=16	=16	=16	=16	=16	=16	=16	=16	=16	=16	=16	=16	=16	=16	=16	=16	=16	=16	=16
4d 4G\	4b 4g/	.	4G\	De-	De-	.	.	4d\	De-	De-	.	.	4g/	De-	De-	.	.	4b/	De-	.
4B 4G\	4g/	.	4G\	-o	-o.	.	.	4B\	-o	-o.	.	.	4g/	-o	-o.	.	.	4g/	-o.	.
2r	2r	.	4d\	.	Et	.	.	4d\	et	Et	.	.	2r	.	.	.	.	2r	.	.
.	.	.	4d\	.	in	.	.	4d\	in	in	.	.	.	.	.	.	.	.	.	.
=17	=17	=17	=17	=17	=17	=17	=17	=17	=17	=17	=17	=17	=17	=17	=17	=17	=17	=17	=17	=17
[>1D [<1GG	1f#X 1c 1A	.	4d\	.	ter-	.	.	4d\	ter-	ter-	.	.	1r	.	.	.	.	1r	.	.
.	.	.	8c\L	.	-ra	.	.	8c\L	-ra	-ra	.	.	.	.	.	.	.	.	.	.
.	.	.	8B\J	.	.	.	.	8B\J	.	.	.	.	.	.	.	.	.	.	.	.
.	.	.	4A\	.	pax	.	.	4A\	pax	pax	.	.	.	.	.	.	.	.	.	.
.	.	.	8B\L	.	ho-	.	.	8B\L	ho-	ho-	.	.	.	.	.	.	.	.	.	.
.	.	.	8A\J	.	.	.	.	8A\J	.	.	.	.	.	.	.	.	.	.	.	.
=18	=18	=18	=18	=18	=18	=18	=18	=18	=18	=18	=18	=18	=18	=18	=18	=18	=18	=18	=18	=18
1D_> 1GG_<	1g 1B	.	4G\	.	-mi-	.	.	4G/	-mi-	-mi-	.	.	1r	.	.	.	.	1r	.	.
.	.	.	8F#X\L	.	-ni-	.	.	8F#X/L	-ni-	-ni-	.	.	.	.	.	.	.	.	.	.
.	.	.	8E\J	.	.	.	.	8E/J	.	.	.	.	.	.	.	.	.	.	.	.
.	.	.	2D\	.	-bus	.	.	2D/	-bus	-bus	.	.	.	.	.	.	.	.	.	.
!!LO:LB:g=original
=19	=19	=19	=19	=19	=19	=19	=19	=19	=19	=19	=19	=19	=19	=19	=19	=19	=19	=19	=19	=19
1D_> 1GG]	2f#X 2c 2A/	.	4D\	.	bo-	.	.	4D/	bo-	bo-	.	.	1r	.	.	.	.	1r	.	.
.	.	.	8E\L	.	-nae	.	.	8E/L	-ne	-nae	.	.	.	.	.	.	.	.	.	.
.	.	.	8F#X\J	.	.	.	.	8F#X/J	.	.	.	.	.	.	.	.	.	.	.	.
.	2g 2B/	.	4G\	.	vo-	.	.	4G/	vo-	vo-	.	.	.	.	.	.	.	.	.	.
!	!	!	!	!	!	!	!	!LO:SIC:v:l:t=-lun-	!	!	!	!	!	!	!	!	!	!	!	!
.	.	.	4B\	.	-lun	.	.	4B/	-lum-	-lun-	.	.	.	.	.	.	.	.	.	.
=20	=20	=20	=20	=20	=20	=20	=20	=20	=20	=20	=20	=20	=20	=20	=20	=20	=20	=20	=20	=20
1D_ 1DD	1a 1f#X 1d	.	[>1d	.	-ta-	.	.	[>1d	-ta-	-ta-	.	.	2r	.	.	.	.	2r	.	.
.	.	.	.	.	.	.	.	.	.	.	.	.	4dd\	.	Et	.	.	4dd\	Et	.
.	.	.	.	.	.	.	.	.	.	.	.	.	4dd\	.	in	.	.	4dd\	in	.
=21	=21	=21	=21	=21	=21	=21	=21	=21	=21	=21	=21	=21	=21	=21	=21	=21	=21	=21	=21	=21
1D_> [<1GG	1f#X 1c 1A	.	1d_>	.	.	.	.	1d_>	.	.	.	.	4dd\	.	ter-	.	.	4dd\	ter-	.
.	.	.	.	.	.	.	.	.	.	.	.	.	8cc\L	.	-ra	.	.	8cc\L	-ra	.
.	.	.	.	.	.	.	.	.	.	.	.	.	8b\J	.	.	.	.	8b\J	.	.
.	.	.	.	.	.	.	.	.	.	.	.	.	4a/	.	pax	.	.	4a/	pax	.
.	.	.	.	.	.	.	.	.	.	.	.	.	8b/L	.	ho-	.	.	8b/L	ho-	.
.	.	.	.	.	.	.	.	.	.	.	.	.	8a/J	.	.	.	.	8a/J	.	.
=22	=22	=22	=22	=22	=22	=22	=22	=22	=22	=22	=22	=22	=22	=22	=22	=22	=22	=22	=22	=22
1D_> 1GG_<	1g 1B	.	1d_>	.	.	.	.	1d_>	.	.	.	.	4g/	.	-mi-	.	.	4g/	-mi-	.
.	.	.	.	.	.	.	.	.	.	.	.	.	8f#X/L	.	-ni-	.	.	8f#X/L	-ni-	.
.	.	.	.	.	.	.	.	.	.	.	.	.	8e/J	.	.	.	.	8e/J	.	.
.	.	.	.	.	.	.	.	.	.	.	.	.	2d/	.	-bus	.	.	2d/	-bus	.
=23	=23	=23	=23	=23	=23	=23	=23	=23	=23	=23	=23	=23	=23	=23	=23	=23	=23	=23	=23	=23
1D] 1GG]	1f#X 1c 1A	.	4d\]	.	.	.	.	1d]	.	.	.	.	4d/	.	bo-	.	.	4d/	bo-	.
.	.	.	8c\L	.	.	.	.	.	.	.	.	.	8f#X/L	.	-nae	.	.	8f#X/L	-nae	.
.	.	.	8B\J	.	.	.	.	.	.	.	.	.	8g/J	.	.	.	.	8g/J	.	.
.	.	.	4A\	.	.	.	.	.	.	.	.	.	4a/	.	vo-	.	.	4a/	vo-	.
!	!	!	!	!	!	!	!	!	!	!	!	!	!	!	!	!	!	!LO:SIC:v:l:t=-lun-	!	!
.	.	.	4F#X\	.	.	.	.	.	.	.	.	.	8cc\L	.	-lun-	.	.	8cc\L	-lun-	.
.	.	.	.	.	.	.	.	.	.	.	.	.	8b\J	.	.	.	.	8b\J	.	.
=24	=24	=24	=24	=24	=24	=24	=24	=24	=24	=24	=24	=24	=24	=24	=24	=24	=24	=24	=24	=24
[<1GG	2g 2B/	.	4G\	-tis	-tis.	.	.	4G/	-tis	-tis.	.	.	2g/	.	-ta-	.	.	2g/	-ta-	.
.	.	.	4G\	Lau-	Lau-	.	.	4r	.	.	.	.	.	.	.	.	.	.	.	.
*	*clefF4	*	*	*	*	*	*	*	*	*	*	*	*	*	*	*	*	*	*	*
.	2B 2G\	.	4B\	-da-	-da-	.	.	2r	.	.	.	.	4g/	.	-tis.	.	.	4g/	-tis.	.
.	.	.	4e\	-mus	-mus	.	.	.	.	.	.	.	4r	.	.	.	.	4r	.	.
=25	=25	=25	=25	=25	=25	=25	=25	=25	=25	=25	=25	=25	=25	=25	=25	=25	=25	=25	=25	=25
1GG]	2d 2F#X\	.	2d\	te	te.	.	.	1r	.	.	.	.	1r	.	.	.	.	1r	.	.
.	2c 2E\	.	4c\	Be-	Be-	.	.	.	.	.	.	.	.	.	.	.	.	.	.	.
.	.	.	4c\	-ne-	-ne-	.	.	.	.	.	.	.	.	.	.	.	.	.	.	.
=26	=26	=26	=26	=26	=26	=26	=26	=26	=26	=26	=26	=26	=26	=26	=26	=26	=26	=26	=26	=26
*	*^	*	*	*	*	*	*	*	*	*	*	*	*	*	*	*	*	*	*	*
2GG/	2B/	4D\	.	2B\	-di-	-di-	.	.	1r	.	.	.	.	1r	.	.	.	.	1r	.	.
.	.	4E\	.	.	.	.	.	.	.	.	.	.	.	.	.	.	.	.	.	.	.
2FF#X/	2A#X/	2F#X\	.	4A#X\	-ci-	-ci-	.	.	.	.	.	.	.	.	.	.	.	.	.	.	.
.	.	.	.	4A#\	-mus	-mus	.	.	.	.	.	.	.	.	.	.	.	.	.	.	.
*	*v	*v	*	*	*	*	*	*	*	*	*	*	*	*	*	*	*	*	*	*	*
=27	=27	=27	=27	=27	=27	=27	=27	=27	=27	=27	=27	=27	=27	=27	=27	=27	=27	=27	=27	=27
[>1BB	1B 1D	.	2.B\	te	te.	.	.	4r	.	.	.	.	1r	.	.	.	.	1r	.	.
.	.	.	.	.	.	.	.	4B\	Lau-	Lau-	.	.	.	.	.	.	.	.	.	.
.	.	.	.	.	.	.	.	4d\	-da-	-da-	.	.	.	.	.	.	.	.	.	.
.	.	.	4B\	Lau-	Lau-	.	.	4g\	-mus	-mus	.	.	.	.	.	.	.	.	.	.
=28	=28	=28	=28	=28	=28	=28	=28	=28	=28	=28	=28	=28	=28	=28	=28	=28	=28	=28	=28	=28
*	*	*	*	*	*	*	*	*2\right	*	*	*	*	*	*	*	*	*	*	*	*
1BB_>	2A#X 2E\	.	(>1A#X	-da-	-da-	.	.	2f#X\	te	te.	.	.	1r	.	.	.	.	1r	.	.
.	2c#X 2A#\	.	.	.	.	.	.	4e\	Be-	Be-	.	.	.	.	.	.	.	.	.	.
.	.	.	.	.	.	.	.	4e\	-ne-	-ne-	.	.	.	.	.	.	.	.	.	.
!!LO:PB:g=original
=29	=29	=29	=29	=29	=29	=29	=29	=29	=29	=29	=29	=29	=29	=29	=29	=29	=29	=29	=29	=29
!LO:TX:t=P:problem=brak zakończenia ligatury	!	!	!	!	!	!	!	!	!	!	!	!	!	!	!	!	!	!	!	!
4BB/]	4d 4B\	.	4B\	.	.	.	.	(>4d\	-di-	-di-	.	.	1r	.	.	.	.	1r	.	.
4C/	4cn 4An\	.	4c\	.	.	.	.	4c\)	.	.	.	.	.	.	.	.	.	.	.	.
4D/	4B 4G\	.	4d\)	.	.	.	.	4B\	-ci-	-ci-	.	.	.	.	.	.	.	.	.	.
4DD/	4A 4F#X\	.	4F#X\	-mus	-mus	.	.	4A\	-mus	-mus	.	.	.	.	.	.	.	.	.	.
=30	=30	=30	=30	=30	=30	=30	=30	=30	=30	=30	=30	=30	=30	=30	=30	=30	=30	=30	=30	=30
*	*	*	*	*ij	*ij	*	*	*	*	*	*	*	*	*	*	*	*	*	*	*
[>1G [<1GG	4G\	.	4G\	te	te.	.	.	4B\	te	te.	.	.	4r	.	.	.	.	4r	.	.
*	*clefG2	*	*	*	*	*	*	*	*	*	*	*	*	*	*	*	*	*	*	*
.	4g\	.	4G\	Lau-	Lau-	.	.	4B\	Lau-	Lau-	.	.	4g/	.	Lau-	.	.	4g/	Lau-	.
.	4b 4g\	.	4G\	-da-	-da-	.	.	4B\	-da-	-da-	.	.	4g/	.	-da-	.	.	4b/	-da-	.
.	4ee 4g\	.	4G\	-mus	-mus	.	.	4B\	-mus	-mus	.	.	4g/	.	-mus	.	.	4ee\	-mus	.
=31	=31	=31	=31	=31	=31	=31	=31	=31	=31	=31	=31	=31	=31	=31	=31	=31	=31	=31	=31	=31
*	*^	*	*	*	*	*	*	*	*	*	*	*	*	*	*	*	*	*	*	*
!	!	!	!	!	!	!	!	!	!	!	!	!	!	!	!	!	!	!	!	!LO:MO:mod=te.	!
1G_> 1GG_<	2dd/	4f#X\	.	2G\	te	te.	.	.	2c\	te	te.	.	.	(<4f#X/	.	te.	.	.	2dd\	te	.
.	.	8g\L	.	.	.	.	.	.	.	.	.	.	.	8g/L	.	.	.	.	.	.	.
.	.	8f#\J	.	.	.	.	.	.	.	.	.	.	.	8f#/J)	.	.	.	.	.	.	.
.	4a/	4e\	.	4G\	Be-	Be-	.	.	4c\	Be-	Be-	.	.	4e/	.	Be-	.	.	4a/	Be-	.
.	4dd/	4f#\	.	4G\	-ne-	-ne-	.	.	8d\L	-ne-	-ne-	.	.	4f#/	.	-ne-	.	.	4dd\	-ne-	.
.	.	.	.	.	.	.	.	.	8c\J	.	.	.	.	.	.	.	.	.	.	.	.
*	*v	*v	*	*	*	*	*	*	*	*	*	*	*	*	*	*	*	*	*	*	*
=32	=32	=32	=32	=32	=32	=32	=32	=32	=32	=32	=32	=32	=32	=32	=32	=32	=32	=32	=32	=32
1G_> 1GG_<	4b 4g\	.	2G\	-di-	-di-	.	.	2B\	-di-	-di-	.	.	2g/	.	-di-	.	.	(>4b\	-di-	.
.	4g\	.	.	.	.	.	.	.	.	.	.	.	.	.	.	.	.	4g\)	.	.
.	4b 4g\	.	4G\	-ci-	-ci-	.	.	4B\	-ci-	-ci-	.	.	4g/	.	-ci-	.	.	4b\	-ci-	.
.	4ee 4g\	.	4G\	-mus	-mus	.	.	4B\	-mus	-mus	.	.	4g/	.	-mus	.	.	4ee\	-mus	.
=33	=33	=33	=33	=33	=33	=33	=33	=33	=33	=33	=33	=33	=33	=33	=33	=33	=33	=33	=33	=33
*	*^	*	*	*	*	*	*	*	*	*	*	*	*	*	*	*	*	*	*	*
!	!	!	!	!	!	!	!	!	!	!	!	!	!	!	!	!	!	!	!	!LO:MO:mod=te.	!
1G_> 1GG_<	2dd/	4f#X\	.	2G\	te	te.	.	.	2c\	te	te.	.	.	(<4f#X/	.	te.	.	.	2dd\	te	.
.	.	8g\L	.	.	.	.	.	.	.	.	.	.	.	8g/L	.	.	.	.	.	.	.
.	.	8f#\J	.	.	.	.	.	.	.	.	.	.	.	8f#/J)	.	.	.	.	.	.	.
.	4a/	4e\	.	4G\	A-	A-	.	.	4c\	A-	A-	.	.	4e/	.	A-	.	.	4a\	A-	.
.	4dd/	4f#\	.	4G\	-do-	-do-	.	.	8d\L	-do-	-do-	.	.	4f#/	.	-do-	.	.	4dd\	-do-	.
.	.	.	.	.	.	.	.	.	8c\J	.	.	.	.	.	.	.	.	.	.	.	.
*	*v	*v	*	*	*	*	*	*	*	*	*	*	*	*	*	*	*	*	*	*	*
=34	=34	=34	=34	=34	=34	=34	=34	=34	=34	=34	=34	=34	=34	=34	=34	=34	=34	=34	=34	=34
!	!	!	!	!	!	!	!	!	!	!	!	!	!	!	!	!	!	!	!LO:MO:mod=-ra-	!
1G] 1GG]	[>1b [<1g	.	2.G\	-ra-	-ra-	.	.	2.B\	-ra-	-ra-	.	.	2.g/	.	-ra-	.	.	2.b\	-ram-	.
!	!	!	!	!	!	!	!	!	!	!	!	!	!	!	!	!	!	!	!LO:MO:mod=-mus	!
.	.	.	4G\	-mus	-mus	.	.	4B\	-mus	-mus	.	.	4g/	.	-mus	.	.	4b\	-us	.
=35	=35	=35	=35	=35	=35	=35	=35	=35	=35	=35	=35	=35	=35	=35	=35	=35	=35	=35	=35	=35
!	!	!	!	!	!	!	!	!	!	!	!	!	!	!	!	!	!	!	!LO:MO:mod=te.	!
1E 1EE	1b] 1g]	.	4E\	te	te.	.	.	4e\	te	te.	.	.	4g/	.	te.	.	.	4b\	te	.
.	.	.	4E\	Glo-	Glo-	.	.	4e\	Glo-	Glo-	.	.	4g/	.	Glo-	.	.	4b\	Glo-	.
.	.	.	4E\	-ri-	-ri-	.	.	4e\	-ri-	-ri-	.	.	4g/	.	-ri-	.	.	4b\	-ri-	.
.	.	.	4E\	-fi	-fi-	.	.	4e\	-fi	-fi-	.	.	4g/	.	-fi-	.	.	4b\	-fi-	.
*	*	*	*	*Xij	*Xij	*	*	*	*	*	*	*	*	*	*	*	*	*	*	*
=36	=36	=36	=36	=36	=36	=36	=36	=36	=36	=36	=36	=36	=36	=36	=36	=36	=36	=36	=36	=36
2C 2CC/	2a 2g 2e/	.	2C/	.	-ca-	.	.	2e\	.	-ca-	.	.	2g/	.	-ca-	.	.	2a/	-ca-	.
2D 2DD/	2a 2f#X 2d/	.	2D/	.	-mus	.	.	2d\	.	-mus	.	.	2f#X/	.	-mus	.	.	2a/	-mus	.
=37	=37	=37	=37	=37	=37	=37	=37	=37	=37	=37	=37	=37	=37	=37	=37	=37	=37	=37	=37	=37
!	!	!	!	!	!	!	!	!	!	!	!	!	!	!	!	!	!	!	!LO:MO:mod=te.	!
2G 2GG;>\	2b 2g 2d;>/	.	2G;>\	.	te.	.	.	2d;>\	.	te.	.	.	2g;>/	.	-te.	.	.	2b;>\	te	.
2r;>	2r;>	.	2r;>	.	.	.	.	2r;>	.	.	.	.	2r;>	.	.	.	.	2r;>	.	.
=38	=38	=38	=38	=38	=38	=38	=38	=38	=38	=38	=38	=38	=38	=38	=38	=38	=38	=38	=38	=38
[>1C [<1CC	1cc 1g 1e	.	4.C/	.	Quo-	.	.	4.G/	.	Quo-	.	.	4.e/	.	Quo-	.	.	4.cc\	Quo-	.
.	.	.	8C/	.	-ni-	.	.	8G/	.	-ni-	.	.	8e/	.	-ni-	.	.	8cc\	-ni-	.
.	.	.	2C/	.	-am	.	.	2G/	.	-am	.	.	2e/	.	-am	.	.	2cc\	-am	.
!!LO:LB:g=original
=39	=39	=39	=39	=39	=39	=39	=39	=39	=39	=39	=39	=39	=39	=39	=39	=39	=39	=39	=39	=39
1C_> 1CC_<	1ee 1cc 1g	.	4.C/	.	Quo-	.	.	4.c\	.	Quo-	.	.	4.e/	.	Quo-	.	.	4.ee\	Quo-	.
.	.	.	8C/	.	-ni-	.	.	8c\	.	-ni-	.	.	8e/	.	-ni-	.	.	8ee\	-ni-	.
.	.	.	4C/	.	-am	.	.	4c\	.	-am	.	.	4e/	.	-am	.	.	4ee\	-am	.
.	.	.	4C/	.	tu	.	.	4B-X\	.	tu	.	.	4g/	.	tu	.	.	4ee\	tu	.
=40	=40	=40	=40	=40	=40	=40	=40	=40	=40	=40	=40	=40	=40	=40	=40	=40	=40	=40	=40	=40
*	*^	*	*	*	*	*	*	*	*	*	*	*	*	*	*	*	*	*	*	*
1C_> 1CC_<	4gg/	2a\	.	2C/	.	so-	.	.	2A/	.	so-	.	.	2.f/	.	so-	.	.	4gg\	so-	.
.	8ff/L	.	.	.	.	.	.	.	.	.	.	.	.	.	.	.	.	.	8ff\L	.	.
.	8ee/J	.	.	.	.	.	.	.	.	.	.	.	.	.	.	.	.	.	8ee\J	.	.
.	4dd/	4f\	.	2C/	.	-lus	.	.	2Bn\	.	-lus	.	.	.	.	.	.	.	4dd\	.	.
.	8ee/L	8g\L	.	.	.	.	.	.	.	.	.	.	.	8g/L	.	-lus	.	.	8ee\L	-lus	.
.	8dd/J	8f\J	.	.	.	.	.	.	.	.	.	.	.	8f/J	.	.	.	.	8dd\J	.	.
*	*v	*v	*	*	*	*	*	*	*	*	*	*	*	*	*	*	*	*	*	*	*
=41	=41	=41	=41	=41	=41	=41	=41	=41	=41	=41	=41	=41	=41	=41	=41	=41	=41	=41	=41	=41
2C] 2CC/]	4cc 4e\	.	8.C/	.	Do-	.	.	8.c\	.	Do-	.	.	8.e/	.	Do-	.	.	8.cc\	Do-	.
.	.	.	16C/	.	-mi-	.	.	16c\	.	-mi-	.	.	16e/	.	-mi-	.	.	16g/	-mi-	.
.	4g 4e/	.	4C/	.	-nus	.	.	4c\	.	-nus	.	.	4e/	.	-nus	.	.	4g/	-nus	.
2r	4gg 4g\	.	4r	.	.	.	.	4r	.	.	.	.	4r	.	.	.	.	4r	.	.
.	4gg 4g\	.	4G\	.	tu	.	.	4g\	so-	tu	.	.	4g/	.	tu	.	.	4gg\	tu	.
=42	=42	=42	=42	=42	=42	=42	=42	=42	=42	=42	=42	=42	=42	=42	=42	=42	=42	=42	=42	=42
*^	*^	*	*	*	*	*	*	*	*	*	*	*	*	*	*	*	*	*	*	*
4f/	[<1G	[>1gg	4dd\	.	[>1G	.	so-	.	.	(>4f\	.	so-	.	.	(>4dd\	.	so-	.	.	[>1gg	so-	.
4d/	.	.	4b\	.	.	.	.	.	.	4d\	.	.	.	.	4b\	.	.	.	.	.	.	.
4e/	.	.	4cc\	.	.	.	.	.	.	4e\	.	.	.	.	4cc\	.	.	.	.	.	.	.
4c/	.	.	4ee\	.	.	.	.	.	.	4c\	.	.	.	.	4ee\	.	.	.	.	.	.	.
=43	=43	=43	=43	=43	=43	=43	=43	=43	=43	=43	=43	=43	=43	=43	=43	=43	=43	=43	=43	=43	=43	=43
4B/	1G_<	1gg_>	4ff\	.	2G\]	.	.	.	.	4B\	.	.	.	.	4ff\	.	.	.	.	2gg\]	.	.
4d/	.	.	4dd\	.	.	.	.	.	.	4d\)	.	.	.	.	4dd\)	.	.	.	.	.	.	.
4c/	.	.	4ee\	.	4G\	.	-lus	.	.	4c\	-lus	-lus	.	.	4ee\	.	-lus	.	.	4gg\	-lus	.
!	!	!	!	!	!	!	!	!	!	!	!	!	!	!	!	!	!	!	!	!	!LO:MO:mod=Al-	!
4e/	.	.	4cc\	.	4G\	.	Al-	.	.	4e\	al-	Al-	.	.	4cc\	.	Al-	.	.	4gg\	al-	.
=44	=44	=44	=44	=44	=44	=44	=44	=44	=44	=44	=44	=44	=44	=44	=44	=44	=44	=44	=44	=44	=44	=44
!	!	!	!	!	!	!	!	!	!	!	!	!	!	!	!	!	!	!	!	!	!LO:MO:mod=-tis-	!
4f/	1G]	1gg_>	4b\	.	[1G	.	-tis-	.	.	(>4f\	-ti-	-tis-	.	.	(>4b\	.	-tis-	.	.	[>1gg	-ti-	.
4d/	.	.	4g\	.	.	.	.	.	.	4d\	.	.	.	.	4g\	.	.	.	.	.	.	.
4e/	.	.	4cc\	.	.	.	.	.	.	4e\	.	.	.	.	4cc\	.	.	.	.	.	.	.
4c/	.	.	4ee\	.	.	.	.	.	.	4c\	.	.	.	.	4ee\	.	.	.	.	.	.	.
=45	=45	=45	=45	=45	=45	=45	=45	=45	=45	=45	=45	=45	=45	=45	=45	=45	=45	=45	=45	=45	=45	=45
!	!	!	!	!	!LO:TX:t=P:korekta:problem	!	!	!	!	!	!	!	!	!	!	!	!	!	!	!	!	!
4B/	2G\	2gg/_>	4dd\	.	4G\]	.	.	.	.	4B\)	.	.	.	.	4dd\)	.	.	.	.	2gg\]	.	.
4c/	.	.	4ee\	.	4G\	.	-si-	.	.	4c\	-si-	-si-	.	.	4ee\	.	-si-	.	.	.	.	.
!	!	!	!	!	!	!	!	!	!	!	!	!	!	!	!	!	!	!	!	!	!LO:MO:mod=-si-	!
4B/	4G\	8gg/L]	4dd\	.	4G\	.	-mus	.	.	4B\	-mus	-mus	.	.	4dd\	.	-mus	.	.	8gg\L	-ssi-	.
.	.	8ff/	.	.	.	.	.	.	.	.	.	.	.	.	.	.	.	.	.	8ff\J	.	.
4r	4ryy	8ee/	4r	.	4r	.	.	.	.	4r	.	.	.	.	4r	.	.	.	.	8ee\L	-mus	.
.	.	8dd/J	.	.	.	.	.	.	.	.	.	.	.	.	.	.	.	.	.	8dd\J	.	.
*v	*v	*	*	*	*	*	*	*	*	*	*	*	*	*	*	*	*	*	*	*	*	*
*	*v	*v	*	*	*	*	*	*	*	*	*	*	*	*	*	*	*	*	*	*	*
=46	=46	=46	=46	=46	=46	=46	=46	=46	=46	=46	=46	=46	=46	=46	=46	=46	=46	=46	=46	=46
[>1C [<1CC	1cc 1g 1e	.	4.C/	.	Quo-	.	.	4.G/	.	Quo-	.	.	4.e/	.	Quo-	.	.	4.cc\	Quo-	.
.	.	.	8C/	.	-ni-	.	.	8G/	.	-ni-	.	.	8e/	.	-ni-	.	.	8cc\	-ni-	.
.	.	.	2C/	.	-am	.	.	2G/	.	-am	.	.	2e/	.	-am	.	.	2cc\	-am	.
=47	=47	=47	=47	=47	=47	=47	=47	=47	=47	=47	=47	=47	=47	=47	=47	=47	=47	=47	=47	=47
1C_> 1CC_<	1ee 1cc 1g	.	4.C/	.	Quo-	.	.	4.c\	.	Quo-	.	.	4.e/	.	Quo-	.	.	4.ee\	Quo-	.
.	.	.	8C/	.	-ni-	.	.	8c\	.	-ni-	.	.	8e/	.	-ni-	.	.	8ee\	-ni-	.
.	.	.	4C/	.	-am	.	.	4c\	.	-am	.	.	4e/	.	-am	.	.	4ee\	-am	.
.	.	.	4C/	.	tu	.	.	4B-X\	.	tu	.	.	4g/	.	tu	.	.	4ee\	tu	.
=48	=48	=48	=48	=48	=48	=48	=48	=48	=48	=48	=48	=48	=48	=48	=48	=48	=48	=48	=48	=48
*	*^	*	*	*	*	*	*	*	*	*	*	*	*	*	*	*	*	*	*	*
1C_> 1CC_<	4gg/	2a\	.	2C/	.	so-	.	.	2A/	.	so-	.	.	2.f/	.	so-	.	.	4gg\	so-	.
.	8ff/L	.	.	.	.	.	.	.	.	.	.	.	.	.	.	.	.	.	8ff\L	.	.
.	8ee/J	.	.	.	.	.	.	.	.	.	.	.	.	.	.	.	.	.	8ee\J	.	.
.	4dd/	4f\	.	2C/	.	-lus	.	.	2Bn\	.	-lus	.	.	.	.	.	.	.	4dd\	.	.
.	8ee/L	8g\L	.	.	.	.	.	.	.	.	.	.	.	8g/L	.	-lus	.	.	8ee\L	-lus	.
.	8dd/J	8f\J	.	.	.	.	.	.	.	.	.	.	.	8f/J	.	.	.	.	8dd\J	.	.
*	*v	*v	*	*	*	*	*	*	*	*	*	*	*	*	*	*	*	*	*	*	*
!!LO:PB:g=original
=49	=49	=49	=49	=49	=49	=49	=49	=49	=49	=49	=49	=49	=49	=49	=49	=49	=49	=49	=49	=49
!LO:TX:t=P:problem=brak zakończenia ligatury	!	!	!	!	!	!	!	!	!	!	!	!	!	!	!	!	!	!	!	!
2C] 2CC/]	4cc 4e\	.	8.C/	.	Do-	.	.	8.c\	.	Do-	.	.	8.e/	.	Do-	.	.	8.cc\	Do-	.
.	.	.	16C/	.	-mi-	.	.	16c\	.	-mi-	.	.	16e/	.	-mi-	.	.	16g/	-mi-	.
.	4g 4e\	.	4C/	.	-nus	.	.	4c\	.	-nus	.	.	4e/	.	-nus	.	.	4g/	-nus	.
2r	4ee 4e\	.	4r	.	.	.	.	4r	.	.	.	.	4r	.	.	.	.	4r	.	.
.	4ee 4e\	.	4E\	.	tu	.	.	4e\	.	tu	.	.	4e/	.	tu	.	.	4ee\	tu	.
=50	=50	=50	=50	=50	=50	=50	=50	=50	=50	=50	=50	=50	=50	=50	=50	=50	=50	=50	=50	=50
*^	*^	*	*	*	*	*	*	*	*	*	*	*	*	*	*	*	*	*	*	*
4d/	[<1E	[>1ee	4b\	.	[>1E	.	so-	.	.	(>4d\	.	so-	.	.	(>4b\	.	so-	.	.	[>1ee	so-	.
4B/	.	.	4g#X\	.	.	.	.	.	.	4B\	.	.	.	.	4g#X\	.	.	.	.	.	.	.
4c/	.	.	4a\	.	.	.	.	.	.	4c\	.	.	.	.	4a\	.	.	.	.	.	.	.
4A/	.	.	4cc\	.	.	.	.	.	.	4A\	.	.	.	.	4cc\	.	.	.	.	.	.	.
=51	=51	=51	=51	=51	=51	=51	=51	=51	=51	=51	=51	=51	=51	=51	=51	=51	=51	=51	=51	=51	=51	=51
4G#X/	1E_<	1ee_>	4dd\	.	2E\]	.	.	.	.	4G#X\	.	.	.	.	4dd\	.	.	.	.	2ee\]	.	.
4B/	.	.	4b\	.	.	.	.	.	.	4B\)	.	.	.	.	4b\)	.	.	.	.	.	.	.
4A/	.	.	4cc\	.	4E\	.	-lus	.	.	4A\	.	-lus	.	.	4cc\	.	-lus	.	.	4ee\	-lus	.
!	!	!	!	!	!	!	!	!	!	!	!	!	!	!	!	!	!	!	!	!	!LO:MO:mod=Al-	!
4c/	.	.	4a\	.	4E\	.	Al-	.	.	4c\	.	Al-	.	.	4a\	.	Al-	.	.	4ee\	al-	.
=52	=52	=52	=52	=52	=52	=52	=52	=52	=52	=52	=52	=52	=52	=52	=52	=52	=52	=52	=52	=52	=52	=52
4d/	1E_<	1ee_>	4g#X\	.	1E	.	-tis-	.	.	4d\	.	-tis-	.	.	4g#X\	.	-tis-	.	.	1ee	-tis-	.
4B/	.	.	4b\	.	.	.	.	.	.	4B\	.	.	.	.	4b\	.	.	.	.	.	.	.
4c/	.	.	4a\	.	.	.	.	.	.	4c\	.	.	.	.	4a\	.	.	.	.	.	.	.
4A/	.	.	4cc\	.	.	.	.	.	.	4A\	.	.	.	.	4cc\	.	.	.	.	.	.	.
=53	=53	=53	=53	=53	=53	=53	=53	=53	=53	=53	=53	=53	=53	=53	=53	=53	=53	=53	=53	=53	=53	=53
4G#X/	1E_<	1ee]	4dd\	.	2E\	.	-si-	.	.	(<4G#X/	.	-si-	.	.	(>4dd\	.	-si-	.	.	2ee\	-si-	.
4B/	.	.	4b\	.	.	.	.	.	.	4B/)	.	.	.	.	4b\)	.	.	.	.	.	.	.
4A/	.	.	4cc\	.	2E\	.	-mus	.	.	(<4A/	.	-mus	.	.	(>4cc\	.	-mus	.	.	2ee\	-mus	.
4c/	.	.	4a\	.	.	.	.	.	.	4c/)	.	.	.	.	4a\)	.	.	.	.	.	.	.
*v	*v	*	*	*	*	*	*	*	*	*	*	*	*	*	*	*	*	*	*	*	*	*
=54	=54	=54	=54	=54	=54	=54	=54	=54	=54	=54	=54	=54	=54	=54	=54	=54	=54	=54	=54	=54	=54
1B 1E]	2.ee/	1g#X	.	2.E\	.	Je-	.	.	2.B\	.	Je-	.	.	2.g#X/	.	Je-	.	.	2.ee\	Je-	.
.	4dd/	.	.	4E\	.	-su	.	.	4B\	.	-su	.	.	4g#/	.	-su	.	.	4dd\	-su	.
=55	=55	=55	=55	=55	=55	=55	=55	=55	=55	=55	=55	=55	=55	=55	=55	=55	=55	=55	=55	=55	=55
2c 2A\	2cc/	1a	.	2A\	.	Je-	.	.	2c\	.	Je-	.	.	2a/	.	Je-	.	.	2cc\	Je-	.
2d 2D\	2ff/	.	.	2D\	.	-su	.	.	2d\	.	-su	.	.	2a/	.	-su	.	.	2ff\	-su	.
=56	=56	=56	=56	=56	=56	=56	=56	=56	=56	=56	=56	=56	=56	=56	=56	=56	=56	=56	=56	=56	=56
*^	*	*	*	*	*	*	*	*	*	*	*	*	*	*	*	*	*	*	*	*	*
!	!	!	!	!	!	!	!	!	!	!	!	!	!	!	!	!	!	!	!	!	!LO:MO:mod=Chri-	!
4c/	1G	2.dd/	1gn	.	1G	.	Chri-	.	.	(>4c\	.	Chri-	.	.	1gn	.	Chri-	.	.	(>2.dd\	chri-	.
8B/L	.	.	.	.	.	.	.	.	.	8B\L	.	.	.	.	.	.	.	.	.	.	.	.
8A/J	.	.	.	.	.	.	.	.	.	8A\J	.	.	.	.	.	.	.	.	.	.	.	.
2B/	.	.	.	.	.	.	.	.	.	2B\)	.	.	.	.	.	.	.	.	.	.	.	.
.	.	8ee/L	.	.	.	.	.	.	.	.	.	.	.	.	.	.	.	.	.	8ee\L	.	.
.	.	8dd/J	.	.	.	.	.	.	.	.	.	.	.	.	.	.	.	.	.	8dd\J)	.	.
*v	*v	*	*	*	*	*	*	*	*	*	*	*	*	*	*	*	*	*	*	*	*	*
*	*v	*v	*	*	*	*	*	*	*	*	*	*	*	*	*	*	*	*	*	*	*
=57	=57	=57	=57	=57	=57	=57	=57	=57	=57	=57	=57	=57	=57	=57	=57	=57	=57	=57	=57	=57
!	!	!	!	!	!	!	!	!	!	!	!	!	!	!	!	!	!	!	!LO:MO:mod=-ste.	!
1c [<1C	1cc 1e	.	4C/	.	-ste.	.	.	4c\	.	-ste.	.	.	4e/	.	-ste.	.	.	4cc\	-ste	.
!	!	!	!	!	!	!	!	!	!	!	!	!	!	!	!	!	!	!LO:SIC:v:l:t=Cum	!LO:MO:mod=Cum	!
.	.	.	4C/	.	Cum	.	.	4c\	.	Cum	.	.	4e/	.	Cum	.	.	4cc\	Cun	.
!	!	!	!	!	!	!	!	!	!	!	!	!	!	!	!	!	!	!	!LO:MO:mod=San-	!
.	.	.	4C/	.	San-	.	.	4c\	.	San-	.	.	4e/	.	San-	.	.	4cc\	san-	.
.	.	.	4C/	.	-cto	.	.	4c\	.	-cto	.	.	4e/	.	-cto	.	.	4cc\	-cto	.
=58	=58	=58	=58	=58	=58	=58	=58	=58	=58	=58	=58	=58	=58	=58	=58	=58	=58	=58	=58	=58
*^	*^	*	*	*	*	*	*	*	*	*	*	*	*	*	*	*	*	*	*	*
!	!	!	!	!	!	!	!	!	!	!	!	!	!	!	!	!	!	!	!	!	!LO:MO:mod=Spi-	!
4B/	1C_<	4g/	1f	.	4C/	.	Spi-	.	.	4B\	.	Spi-	.	.	4f/	.	Spi-	.	.	4g/	spi-	.
8A/L	.	8a/L	.	.	4C/	.	-ri-	.	.	8A\L	.	-ri-	.	.	4f/	.	-ri-	.	.	8a/L	-ri-	.
8G/J	.	8b/J	.	.	.	.	.	.	.	8G\J	.	.	.	.	.	.	.	.	.	8b/J	.	.
4A/	.	4cc/	.	.	4C/	.	-tu	.	.	4A\	.	-tu	.	.	4f/	.	-tu	.	.	4cc\	-tu	.
4B/	.	4dd/	.	.	4C/	.	in	.	.	4B\	.	in	.	.	4f/	.	in	.	.	4dd\	in	.
*v	*v	*	*	*	*	*	*	*	*	*	*	*	*	*	*	*	*	*	*	*	*	*
*	*v	*v	*	*	*	*	*	*	*	*	*	*	*	*	*	*	*	*	*	*	*
!!LO:LB:g=original
=59	=59	=59	=59	=59	=59	=59	=59	=59	=59	=59	=59	=59	=59	=59	=59	=59	=59	=59	=59	=59
!	!	!	!	!	!	!	!	!	!	!	!	!	!	!	!	!	!	!LO:TX:t=P:korekta:problem	!LO:MO:mod=glo-	!
[>2c 2C\_<	4.ee 4.e\	.	4.C/	.	glo-	.	.	4.c\	Glo-	glo-	.	.	4.e/	.	glo-	.	.	4.ee\	Glo-	.
.	8dd 8f\	.	8C/	.	-ri-	.	.	8d\	-ri-	-ri-	.	.	8f/	.	-ri-	.	.	8dd\	-ri-	.
!	!	!	!	!	!	!	!	!	!	!	!	!	!	!	!	!	!	!	!LO:MO:mod=-a	!
4c] 4C\]	4cc 4g 4e\	.	4C/	.	-a	.	.	4e\	-ae	-a	.	.	4g/	.	-a	.	.	4cc\	-ae	.
4r	8cc\L	.	4r	.	.	.	.	4r	.	.	.	.	4r	.	.	.	.	8cc\	De-	.
.	8ee\J	.	.	.	.	.	.	.	.	.	.	.	.	.	.	.	.	8ee\	-i	.
=60	=60	=60	=60	=60	=60	=60	=60	=60	=60	=60	=60	=60	=60	=60	=60	=60	=60	=60	=60	=60
[>1C [<1CC	4gg\	.	4r	.	.	.	.	4r	.	.	.	.	4r	.	.	.	.	[>1gg	Pa-	.
.	4cc 4e\	.	4C/	.	Cum	.	.	4c\	Cum	Cum	.	.	4e/	Cum	Cum	.	.	.	.	.
.	4cc 4e\	.	4C/	.	San-	.	.	4c\	san-	San-	.	.	4e/	san-	San-	.	.	.	.	.
.	4cc 4e\	.	4C/	.	-cto	.	.	4c\	-cto	-cto	.	.	4e/	-cto	-cto	.	.	.	.	.
=61	=61	=61	=61	=61	=61	=61	=61	=61	=61	=61	=61	=61	=61	=61	=61	=61	=61	=61	=61	=61
1C_> 1CC_<	4a 4f\	.	4C/	.	Spi-	.	.	4A/	spi-	Spi-	.	.	4f/	.	Spi-	.	.	1gg_>	.	.
.	8bL 8g\	.	4C/	.	-ri-	.	.	8B\L	-ri-	-ri-	.	.	8g/L	.	-ri-	.	.	.	.	.
.	8ccJ 8a\	.	.	.	.	.	.	8c\J	.	.	.	.	8a/J	.	.	.	.	.	.	.
.	4dd 4b\	.	4C/	.	-tu	.	.	4d\	-tu	-tu	.	.	4b\	.	-tu	.	.	.	.	.
.	8eeL 8cc\	.	4C/	.	in	.	.	8e\L	in	in	.	.	8cc\L	.	in	.	.	.	.	.
.	8ffJ 8dd\	.	.	.	.	.	.	8f\J	.	.	.	.	8dd\J	.	.	.	.	.	.	.
=62	=62	=62	=62	=62	=62	=62	=62	=62	=62	=62	=62	=62	=62	=62	=62	=62	=62	=62	=62	=62
2C_> 2CC/_<	4.gg 4.ee\	.	4.C/	.	glo-	.	.	(>4.g\	Glo-	glo-	.	.	(>4.ee\	.	glo-	.	.	2gg\]	.	.
.	8ff 8dd\	.	8C/	.	-ri-	.	.	8f\)	-ri-	-ri-	.	.	8dd\)	.	-ri-	.	.	.	.	.
8C] 8CC/]	8ee 8cc\	.	8C/	.	-a	.	.	8e\	-ae	-a	.	.	8cc\	.	-a	.	.	8ee\	-tris	.
8r	8r	.	8r	.	.	.	.	8r	.	.	.	.	8r	.	.	.	.	8r	.	.
4c 4C\	4ee 4g\	.	4C/	.	in	.	.	4c\	in	in	.	.	4a/	.	in	.	.	4ee\	in	.
=63	=63	=63	=63	=63	=63	=63	=63	=63	=63	=63	=63	=63	=63	=63	=63	=63	=63	=63	=63	=63
!	!	!	!	!	!	!	!	!	!	!	!	!	!	!	!	!	!	!	!LO:MO:mod=glo-	!
1c#X 1A	1ee 1g	.	2A\	.	glo-	.	.	2c#X\	Glo-	glo-	.	.	2g/	.	glo-	.	.	2ee\	Glo-	.
.	.	.	4A\	.	-ri-	.	.	4c#\	-ri-	-ri-	.	.	4g/	.	-ri-	.	.	4ee\	-ri-	.
!	!	!	!	!	!	!	!	!	!	!	!	!	!	!	!	!	!	!	!LO:MO:mod=-a	!
.	.	.	4A\	.	-a	.	.	4c#\	-ae	-a	.	.	4g/	.	-a	.	.	4ee\	-ae	.
=64	=64	=64	=64	=64	=64	=64	=64	=64	=64	=64	=64	=64	=64	=64	=64	=64	=64	=64	=64	=64
2d 2D\	2ff 2f\	.	2D\	.	De-	.	.	2d\	De-	De-	.	.	2f/	.	De-	.	.	2ff\	De-	.
2d 2F\	2dd 2a\	.	2F\	.	-i	.	.	2d\	-i	-i	.	.	2a/	.	-i	.	.	2dd\	-i	.
=65	=65	=65	=65	=65	=65	=65	=65	=65	=65	=65	=65	=65	=65	=65	=65	=65	=65	=65	=65	=65
1d 1G	1b 1f	.	1G	.	Pa-	.	.	1d	Pa-	Pa-	.	.	1f	.	Pa-	.	.	1b	Pa-	.
=66	=66	=66	=66	=66	=66	=66	=66	=66	=66	=66	=66	=66	=66	=66	=66	=66	=66	=66	=66	=66
!	!	!	!	!	!	!	!	!	!	!	!	!	!	!	!	!	!	!	!LO:MO:mod=-tris.	!
2c 2C\	2cc 2e/	.	2C/	.	-tris.	.	.	2c\	-tris	-tris.	.	.	2e/	.	-tris.	.	.	2cc\	-tris	.
2r	2r	.	2r	.	.	.	.	2r	.	.	.	.	2r	.	.	.	.	2r	.	.
=67	=67	=67	=67	=67	=67	=67	=67	=67	=67	=67	=67	=67	=67	=67	=67	=67	=67	=67	=67	=67
1c 1C	1ee 1cc 1g	.	1C	.	A-	.	.	1c	A-	A-	.	.	1g	.	A-	.	.	1ee	A-	.
=68	=68	=68	=68	=68	=68	=68	=68	=68	=68	=68	=68	=68	=68	=68	=68	=68	=68	=68	=68	=68
!	!	!	!	!	!	!	!	!	!	!	!	!	!	!	!	!	!	!	!LO:MO:mod=-men.	!
2c 2C\	2ee 2cc 2g\	.	2C/	.	-men.	.	.	2c\	-men	-men.	.	.	2g/	.	-men.	.	.	2ee\	-men	.
2r	2r	.	2r	.	.	.	.	2r	.	.	.	.	2r	.	.	.	.	2r	.	.
!!LO:PB:g=original
==	==	==	==	==	==	==	==	==	==	==	==	==	==	==	==	==	==	==	==	==
*-	*-	*-	*-	*-	*-	*-	*-	*-	*-	*-	*-	*-	*-	*-	*-	*-	*-	*-	*-	*-
!!LO:MO:ori
!!!system-decoration: s1,s2,s3,s4[(s5,s6)]
!!!RDF**kern: < = below
!!!RDF**kern: > = above
!!LO:MO:mod
!! !!!system-decoration: [(s1,s2,s3,s4)]{(s5,s6)}
!!LO:MO:end
!!!filter-modern: sic -sq | autostem -r | tie -s | shed -k -e "s/[<>]//g" | shed -e "s/LO:DY:(a|b|rj)/LO:dy:$1/L" | shed -e "s/^(\d+[\/\\]right)/$1yy/I; s/^(\d+[\/\\]left)/$1yy/I" | shed -e "s/:t=P:/:T=P:/L" | modori -m
!!!ENC: Katarzyna Serwa
!!!END: 2021-05-13
!!!ENC: Marta Chmielewska
!!!END: 2021-05-27
!!!ENC-modern: Marta Lawrence
!!!END-modern: 2022-07-08
